svgs/regular/send-backward.svg

<svg xmlns="http://www.w3.org/2000/svg" viewBox="0 0 512 512"><!-- Font Awesome Pro 6.0.0-alpha2 by @fontawesome - https://fontawesome.com License - https://fontawesome.com/license (Commercial License) --><path d="M448 160H224C188.654 160 160 188.652 160 224V448C160 483.346 188.654 512 224 512H448C483.348 512 512 483.346 512 448V224C512 188.652 483.348 160 448 160ZM464 448C464 456.822 456.822 464 448 464H224C215.178 464 208 456.822 208 448V224C208 215.178 215.178 208 224 208H448C456.822 208 464 215.178 464 224V448ZM352 128V64C352 28.652 323.346 0 288 0H64C28.654 0 0 28.652 0 64V288C0 323.346 28.654 352 64 352H128V224C128 171.064 171.066 128 224 128H352Z"/></svg>

<svg xmlns="http://www.w3.org/2000/svg" viewBox="0 0 512 512"><!--! Font Awesome Pro 6.0.0-alpha3 by @fontawesome - https://fontawesome.com License - https://fontawesome.com/license (Commercial License) --><path d="M448 160H224C188.7 160 160 188.7 160 224v224c0 35.35 28.65 64 64 64h224c35.35 0 64-28.65 64-64V224C512 188.7 483.3 160 448 160zM464 448c0 8.822-7.178 16-16 16H224c-8.822 0-16-7.178-16-16V224c0-8.822 7.178-16 16-16h224c8.822 0 16 7.178 16 16V448zM352 128V64c0-35.35-28.65-64-64-64H64C28.65 0 0 28.65 0 64v224c0 35.35 28.65 64 64 64h64V224c0-52.94 43.07-96 96-96H352z"/></svg>
